build/images/svg/fill 1.svg

<svg  width="17" height="17" viewBox="0 0 17 17" fill="none" xmlns="http://www.w3.org/2000/svg">
  <path fill-rule="evenodd" clip-rule="evenodd" d="M7.33737 0C9.29817 0 11.1417 0.732088 12.5278 2.06084C15.2134 4.63432 15.3792 8.72258 13.0264 11.4835L16.4749 14.789C16.7648 15.0668 16.7648 15.5169 16.4749 15.7947C16.33 15.9337 16.1401 16.0031 15.9503 16.0031C15.7605 16.0031 15.5706 15.9337 15.4257 15.7947L11.9771 12.4892C10.6706 13.5144 9.0489 14.0721 7.33724 14.0721C5.37644 14.0721 3.53288 13.3401 2.14678 12.0113C-0.715576 9.26837 -0.715576 4.8044 2.14678 2.06075C3.53314 0.732106 5.37657 0 7.33737 0ZM3.19617 11.0057C4.30268 12.0663 5.77304 12.6498 7.33741 12.6498C8.90178 12.6498 10.3721 12.0656 11.4786 11.0057C13.762 8.817 13.762 5.25524 11.4786 3.06673C10.3721 2.00681 8.90178 1.42266 7.33741 1.42266C5.77304 1.42266 4.30271 2.00681 3.19617 3.06673C0.912778 5.25595 0.912778 8.81717 3.19617 11.0057Z" fill="white"/>
</svg>

<svg width="17" height="17" fill="none" xmlns="http://www.w3.org/2000/svg"><path fill-rule="evenodd" clip-rule="evenodd" d="M7.337 0c1.961 0 3.805.732 5.19 2.06 2.686 2.574 2.852 6.663.5 9.424l3.448 3.305a.69.69 0 010 1.006.756.756 0 01-.525.208c-.19 0-.38-.07-.524-.208l-3.449-3.306a7.482 7.482 0 01-4.64 1.583c-1.96 0-3.804-.732-5.19-2.06-2.863-2.744-2.863-7.208 0-9.951C3.533.732 5.377 0 7.337 0zm-4.14 11.006a5.947 5.947 0 004.14 1.644 5.95 5.95 0 004.142-1.644 5.457 5.457 0 000-7.94 5.95 5.95 0 00-4.142-1.643 5.95 5.95 0 00-4.14 1.644 5.457 5.457 0 000 7.939z" fill="#fff"/></svg>
